X:1149
T:The Zephyr
C:James Platts, 1813
L:1/4
M:2/2
R:Reel
S:Colin Hume's website,  colinhume.com  - chords can also be printed below the stave.
N:The number of bars has been doubled.
%%MIDI chordprog 6      % Harpsichord
%%MIDI bassprog 25      % Acoustic Guitar (steel)
%%MIDI program 6        % Harpsichord
%%MIDI gchord fHIg
%%MIDI gchordoff
Q:1/2=120
K:G
P:A
|: d2 | [I:MIDI=gchordon] "G"gfge | edBd | "D7"dcAc | "G"cBGd | "G"gf "C"ge | "G"edBd | "D7"dcAF | "G"G2 :|
P:B
|: G2 | "D7"FAAA | "G"GBBB | "D7"Accc | "G"BdBG | "D7"FAAA | "G"GBBB | "D7"dcAF | "G"G2 :|

